X: 26742
T: Mileva Ruchenitza
R: reel
M: 4/4
K: Eminor
M:7/8
|:^d2e2 ~f2f|f2f2 ~f2e|fagf e^de|~f2f2 z2B|
^d2e2 ~f2f|f2f2 ~f2e|^dfed cBA|1 Bc^de f2B:|2 ~B2BF ~B2z||
|:fggf ~e2e|effe ~^d2d|^deed cBA|Bc^de ~f2f|
aggf ~e2e|effe ~^d2d|^deed cBA|~B2BF ~B2z:|
|:ecaa a2a|a2a2 ~a2g|eB~g2 g2g|g2g2 ~g2f|BcAB c^de|
fggf e^dc|1 ^deed cBA|Bc^de ~f2f:|2 aggf e^dc|^deed cBA|~B2BF B2z||

